webapp/client/src/assets/icons/ausserg_bela_icon.svg

<svg width="38" height="35" viewBox="0 0 38 35" fill="none" xmlns="http://www.w3.org/2000/svg">
<path d="M14.5625 0.399902C13.0244 0.399902 11.75 1.67432 11.75 3.2124V6.0249H4.71875C2.40063 6.0249 0.5 7.92554 0.5 10.2437V29.9312C0.5 32.2493 2.40063 34.1499 4.71875 34.1499H32.8438C35.1619 34.1499 37.0625 32.2493 37.0625 29.9312V10.2437C37.0625 7.92554 35.1619 6.0249 32.8438 6.0249H25.8125V3.2124C25.8125 1.67432 24.5381 0.399902 23 0.399902H14.5625ZM14.5625 3.2124H23V6.0249H14.5625V3.2124ZM4.71875 8.8374H32.8438C33.6348 8.8374 34.25 9.45264 34.25 10.2437V29.9312C34.25 30.7222 33.6348 31.3374 32.8438 31.3374H4.71875C3.92773 31.3374 3.3125 30.7222 3.3125 29.9312V10.2437C3.3125 9.45264 3.92773 8.8374 4.71875 8.8374ZM17.375 11.6499V17.2749H11.75V20.0874H17.375V25.7124H20.1875V20.0874H25.8125V17.2749H20.1875V11.6499H17.375Z" fill="#0B0C0C"/>
</svg>

<svg width="38" height="35" viewBox="0 0 38 35" fill="none" xmlns="http://www.w3.org/2000/svg">
    <path d="M14.563.4a2.832 2.832 0 0 0-2.813 2.812v2.813H4.719A4.234 4.234 0 0 0 .5 10.244V29.93c0 2.318 1.9 4.219 4.219 4.219h28.125c2.318 0 4.218-1.9 4.218-4.219V10.244c0-2.318-1.9-4.22-4.218-4.22h-7.032V3.213A2.832 2.832 0 0 0 23 .4h-8.438Zm0 2.812H23v2.813h-8.438V3.212ZM4.719 8.837h28.125c.79 0 1.406.616 1.406 1.407V29.93c0 .791-.615 1.406-1.406 1.406H4.719a1.388 1.388 0 0 1-1.407-1.406V10.244c0-.791.616-1.407 1.407-1.407Zm12.656 2.813v5.625H11.75v2.812h5.625v5.625h2.813v-5.625h5.625v-2.812h-5.625V11.65h-2.813Z"
          fill="#0B0C0C"/>
</svg>
